src/assets/svg/notifications.svg

<svg width="32" height="35" viewBox="0 0 32 35" fill="none" xmlns="http://www.w3.org/2000/svg">
<path d="M16 32.0833C17.4666 32.0833 18.6666 30.7708 18.6666 29.1667H13.3333C13.3333 30.7708 14.52 32.0833 16 32.0833ZM24 23.3333V16.0417C24 11.5646 21.8133 7.81667 18 6.825V5.83334C18 4.62292 17.1066 3.64584 16 3.64584C14.8933 3.64584 14 4.62292 14 5.83334V6.825C10.1733 7.81667 7.99998 11.55 7.99998 16.0417V23.3333L5.33331 26.25V27.7083H26.6666V26.25L24 23.3333Z" fill="#2F80ED"/>
<path d="M22.6666 15.0833C25.9295 15.0833 28.5 12.2047 28.5 8.75C28.5 5.29531 25.9295 2.41666 22.6666 2.41666C19.4038 2.41666 16.8333 5.29531 16.8333 8.75C16.8333 12.2047 19.4038 15.0833 22.6666 15.0833Z" fill="#EB5757" stroke="white"/>
</svg>

<svg width="32" height="35" viewBox="0 0 32 35" fill="none" xmlns="http://www.w3.org/2000/svg"><path d="M16 32.083c1.467 0 2.667-1.312 2.667-2.916h-5.334c0 1.604 1.187 2.916 2.667 2.916m8-8.75v-7.291c0-4.477-2.187-8.225-6-9.217v-.992c0-1.21-.893-2.187-2-2.187s-2 .977-2 2.187v.992c-3.827.992-6 4.725-6 9.217v7.291L5.333 26.25v1.458h21.334V26.25z" fill="#2F80ED"/><path d="M22.667 15.083c3.262 0 5.833-2.878 5.833-6.333s-2.57-6.333-5.833-6.333-5.834 2.878-5.834 6.333 2.57 6.333 5.834 6.333Z" fill="#EB5757" stroke="#fff"/></svg>
